assets/gcpcloudspanner/original.svg

<svg height="24" width="24" xmlns="http://www.w3.org/2000/svg"><g fill-rule="evenodd"><path d="m13.34 12.76v-4.36h-2.68v4.36l-3.77 2.18 1.34 2.32 3.77-2.18 3.77 2.18 1.34-2.32z" fill="#669df6"/><path d="m13.34 12.76v-4.36h-1.34v5.12l-4.44 2.58.67 1.16 3.77-2.18 3.77 2.18 1.34-2.32z" fill="#4285f4"/><path d="m10.65 2.77-2.03 1.22v3.73l3.38 1.83v-3.11l-1.35-.62z" fill="#aecbfa"/><path d="m13.35 5.82-1.35.62v3.11l3.38-1.83v-3.73l-2.03-1.22zm4.79 11.26-.08 1.39 2.7 1.53-2.18 1.2-3.24-1.87.11-3.83 3.27-2 3.28 1.88v2.49l-2.69-1.55zm-12.28 0-1.17-.76-2.69 1.55v-2.49l3.23-1.87 3.27 2 .11 3.83-3.19 1.89-2.18-1.23 2.7-1.56z" fill="#669df6"/><path d="m22 17.87-.05-2.49-3.23-1.86-3.27 2.01 2.69 1.55 1.16-.76zm-20 0 2.7-1.55 1.16.76 2.69-1.55-3.27-2.01-3.23 1.86z" fill="#aecbfa"/></g></svg>

<svg xmlns="http://www.w3.org/2000/svg" width="24" height="24"><g data-name="Product Icons"><path id="Shape-2" d="M13.34 12.76V8.4h-2.68v4.36l-3.77 2.18 1.34 2.32L12 15.08l3.77 2.18 1.34-2.32z" data-name="Shape" fill="#669df6" fill-rule="evenodd"/><path d="M13.34 12.76V8.4H12v5.12L7.56 16.1l.67 1.16L12 15.08l3.77 2.18 1.34-2.32z" fill="#4285f4" fill-rule="evenodd"/><path d="M10.65 2.77 8.62 3.99v3.73L12 9.55V6.44l-1.35-.62z" fill-rule="evenodd" fill="#aecbfa"/><path d="M13.35 5.82 12 6.44v3.11l3.38-1.83V3.99l-2.03-1.22zm4.79 11.26-.08 1.39 2.7 1.53-2.18 1.2-3.24-1.87.11-3.83 3.27-2L22 15.38v2.49l-2.69-1.55Zm-12.28 0-1.17-.76L2 17.87v-2.49l3.23-1.87 3.27 2 .11 3.83-3.19 1.89L3.24 20l2.7-1.56Z" fill="#669df6" fill-rule="evenodd"/><path d="m22 17.87-.05-2.49-3.23-1.86-3.27 2.01 2.69 1.55 1.16-.76zm-20 0 2.7-1.55 1.16.76 2.69-1.55-3.27-2.01-3.23 1.86z" fill-rule="evenodd" fill="#aecbfa"/></g></svg>
